X: 1134
T: Reel N295
C: ~ 
M: 4/4
L: 1/8
R: reel
K: Dmaj
|: dcBA BF (3FFF | GFEF GABc | dcBA BFFA |[1 (3Bcd ec dgfe :|[2 (3Bcd ec dD D2 ||
d2 (3efg fdec | dBcA BFFA | d2 (3efg fdec | dbag fddc |
d2 (3efg fdec | dBcA BFFE | GABc defg | fdec dD D2 |]
